X:1
T:Reel St. Antoine Harmony
C:Arrangement by Clare Maher 
R:Reel
M:4/4
K:A
c2 cc cAEA | cBcd cAEA | fedc BAGF | EFGA B4 |
c2 cc cAEA | cBcd cAEA |fedc BAGF|E2G2 A4 :|
A2 AA AGAc | BAGF EFGA | B2 BB B4| cBAG E2 EG |
A2 AA AGAc | BAGF EFG2|  A4 [D4d4] | [E4e4] [E4a4]:|
